!! 00020] TT[TB
!! Zh. Ch. BM 00625, NN), BZ 1289)
!!!OTL: Fanshen daoqing
!!!ARE: Asia, China, Shanxi Shanbei
!! Ethnic Group: Han
!! I, 52 und Kopie
!!!SCT: C0821
!!!YEM: Copyright 1995, estate of Helmut Schaffrath.
**kern
*ICvox
*Ivox
!! Mixed meters:  2/4; 4/4
*M4/4
*k[b-e-a-d-]
*A-:
{4ee-
[4b-
=1
4b-]
4b-
=2
4ee-
8.cc
16b-
=3
4a-}
{8.b-
16b-
=4
8b-
8ee-
8ee-
8cc
=5
8b-
8cc
8b-
8cc
=6
8b-
8cc
8b-
8cc
=7
8b-
8cc
8b-
8cc
=8
8b-
8r
8b-
8r
=9
[2b-
=10
2b-]}
=11
{8cc
8b-
[4ee-
=12
2ee-]
=13
8a-
8f
8ee-
8cc
=14
8.b-
16a-
8a-
8f
=15
2e-}
=16
{8cc
4ee-
8cc
=17
8ee-
8ff
8cc
8b-
=18
8a-
8f
4e-}
=19
{4cc
4ff
=20
4ee-
8cc
8ee-
=21
8b-
8f
8.a-
16f
=22
2e-}
=23
{8ee-
8ee-
[4b-
=24
2b-_
=25
4b-]
8b-
8b-
=26
4ee-
8ff
8ee-
=27
8cc
8b-
4a-}
=28
{8a-
4a-
8a-
=29
8b-
8cc
4b-
=30
4a-
4e-
=31
4a-
4cc
=32
4b-
8f
8e-
=33
4a-
8a-
8f
=34
2e-}
=35
{4b-
4b-
2ee-
=36
8ff
8ee-
8cc
8ee-
2b-
=37
4ee-
8ee-
8ff
4ee-
8a-
8b-
=38
4ee-
8cc
8b-
2a-}
=39
{4a-
8f
8cc
2b-
=40
4ee-
4ee-
8ee-
8cc
8b-
8a-
=41
8a-
4e-
8f
4a-
8ee-
8cc
=42
8b-
8f
8a-
8f
2e-}
=43
{4b-
4b-
2ee-
=44
8ff
8ee-
8cc
8ee-
2b-
=45
4ee-
8ee-
8ff
4ee-
8a-
8b-
=46
4ee-
8cc
8b-
2a-}
=47
{4a-
8f
8a-
2b-
=48
4ee-
4ee-
8ee-
8cc
8b-
8a-
=49
8a-
4e-
8f
4a-
8ee-
8cc
=50
8b-
8f
8.a-
16f
2e-}
=51
*M2/4
{4ee-
[4ee-
=52
2ee-_
=53
4ee-]
8ee-
8ee-
=54
8ee-
8aa-
8ff
8ee-
=55
8.cc
16b-
4a-}
=56
{8b-
8cc
[4b-
=57
2b-]
=58
8a-
8f
4cc
=59
8.b-
16f
8a-
8f
=60
2e-}
=61
{8cc
4ee-
8cc
=62
4ee-
8cc
8b-
=63
4a-
4e-}
=64
{4cc
4ff
=65
4ee-
4a-
=66
8.b-
16cc
8a-
8f
=67
2e-}
=68
{4ee-
[4b-
=69
4.b-]
8b-
=70
4ee-
8ff
8ee-
=71
8.cc
16b-
4a-}
=72
{4r
8.r
16a-
=73
8b-
8cc
[4b-
=74
2b-]
=75
8a-
8f
8ee-
8cc
=76
8.b-
16f
8a-
8f
=77
2e-}
=78
{8cc
4ee-
8cc
=79
2ee-
=80
4f
4r}
=81
{4ff
4ee-
=82
8ee-
8cc
8b-
8a-
=83
8.a-
16e-
[4f
=84
4f]
4r}
=85
{8b-
4b-
8ee-
=86
8a-
8f
4e-}
=87
{8e-
8f
8a-
8cc
=88
8b-
8f
8a-
8f
=89
[2ee-
=90
2ee-]}
==
!!!AGN: Xiaodiao, Daoqing. Geming lishi minge
!! Textbeilage kopiert. Reihenfolge der Lieder nicht mehr eindeutig
!!    zuzuordnen: ABHOEREN! VGL. MIT BAND 5 UND 17
!!    Neues Volkslied. 2 Melodie-Modelle: a) lyrisch, b), S. 53 unten)
!!    eher prosaisch. Angeblich A-B-A. - Daoqing sind volkstuemliche
!!    Balladen, die von Bambustrommeln und -klappern begleitet werden.
!!    Vor- und Zwischenspiele weggelassen. Phrasierung pruefen!! +++
!!   ,  z.B.Phrase 1/2) ! Da eine Angabe fehlt, Lied I, 52, 2) eingegeben.
!!    Kopie Variante der im Buch angegebenen Notation.
!!!ONB: ESAC (Essen Associative Code) Database: CHINA
!!!AMT: irregular
!!!AIN: vox
!!!EED: Helmut Schaffrath
!!!EEV: 1.0
*-
!!!ONB: Tied note syntax fixed by Craig Sapp, 2004/05/03/
